!!!OTL: ES ES ES UND ES
!!!ARE: Europa, Mitteleuropa, Deutschland
!!!SCT: E1592
!!!YEM: Copyright 1995, estate of Helmut Schaffrath.
**kern
*ICvox
*Ivox
*M4/4
*k[f#]
*G:
=1
{2b
2a
=2
4g
8f#
8e
4d}
{4d
=3
4g
4g
4a
4a
=4
2b
2r}
=5
{2b
2a
=6
4g
8f#
8e
4d}
{4d
=7
4g
4g
4a
4a
=8
2b
4r}
{8g
8a
=9
4b
4b
4b
8cc
8b
=10
4a
4a
4a}
{8b
8a
=11
4g
4g
4g
8a
8g
=12
4f#
4e
4d}
{4d
=13
4g
4g
4a
4a
=14
4.b
8cc
4dd}
{4cc
=15
2b
2a
=16
2g
2r}
==
!!!AGN: Staende -, Handwerker -, Gesellen - Lied; Abschied, Wanderschaft
!!!ONB: ESAC (Essen Associative Code) Database: ERK3
!!!AMT: simple quadruple
!!!AIN: vox
!!!EED: Helmut Schaffrath
!!!EEV: 1.0
*-
